public/brands/mysql-word.svg

<svg width="169" height="115" viewBox="0 0 169 115" xmlns="http://www.w3.org/2000/svg"><title>mysql-word</title><g fill="none" fill-rule="evenodd"><path d="M115.769 11.683c-.794 0-1.354.096-1.919.235v.094h.091c.378.747 1.034 1.266 1.498 1.92.377.749.705 1.496 1.079 2.244.046-.045.091-.094.091-.094.66-.466.987-1.215.987-2.34-.283-.329-.327-.654-.563-.983-.28-.467-.889-.701-1.264-1.076" fill="#5A7F93"/><path d="M41.308 104.068h-6.484c-.228-10.943-.86-21.233-1.893-30.872h-.057l-9.871 30.872h-4.937L8.255 73.196h-.058c-.727 9.257-1.185 19.547-1.376 30.872H.91c.382-13.773 1.338-26.684 2.868-38.736h8.035l9.354 28.462h.058l9.411-28.462h7.688c1.684 14.115 2.678 27.03 2.984 38.736M69.426 75.489c-2.64 14.325-6.122 24.735-10.445 31.229-3.368 5.004-7.057 7.506-11.075 7.506-1.071 0-2.391-.323-3.959-.964v-3.453c.766.112 1.664.172 2.698.172 1.874 0 3.384-.518 4.534-1.552 1.376-1.26 2.064-2.676 2.064-4.245 0-1.072-.537-3.271-1.606-6.598l-7.116-22.095h6.37l5.106 16.525c1.148 3.752 1.626 6.371 1.435 7.864 2.793-7.46 4.744-15.59 5.854-24.389h6.14" fill="#186C80"/><path fill="#E6892D" d="M155.73 104.068h-18.419V65.332h6.198v33.971h12.221v4.765M109.423 96.319c-1.569-2.525-2.355-6.577-2.355-12.164 0-9.754 2.966-14.634 8.895-14.634 3.1 0 5.375 1.167 6.83 3.499 1.567 2.526 2.353 6.543 2.353 12.052 0 9.832-2.966 14.75-8.895 14.75-3.099 0-5.375-1.166-6.828-3.503m23.068 8.683l-7.12-3.511a13.325 13.325 0 0 0 1.781-1.73c3.023-3.554 4.536-8.814 4.536-15.778 0-12.815-5.031-19.226-15.092-19.226-4.935 0-8.781 1.625-11.535 4.88-3.024 3.558-4.534 8.798-4.534 15.723 0 6.809 1.338 11.804 4.016 14.977 2.449 2.868 6.141 4.304 11.077 4.304 1.843 0 3.534-.227 5.071-.681l9.272 5.396 2.528-4.354M97.826 93.331c0 3.285-1.207 5.982-3.613 8.092-2.408 2.101-5.643 3.154-9.694 3.154-3.789 0-7.461-1.212-11.018-3.617l1.664-3.327c3.061 1.53 5.831 2.294 8.318 2.294 2.333 0 4.159-.519 5.48-1.545 1.318-1.033 2.108-2.474 2.108-4.302 0-2.3-1.604-4.266-4.547-5.915-2.717-1.491-8.147-4.604-8.147-4.604-2.942-2.146-4.417-4.449-4.417-8.243 0-3.138 1.1-5.674 3.297-7.604 2.202-1.933 5.043-2.9 8.522-2.9 3.596 0 6.866.96 9.811 2.872l-1.496 3.324c-2.52-1.068-5.005-1.604-7.455-1.604-1.988 0-3.52.477-4.588 1.437-1.074.952-1.738 2.177-1.738 3.67 0 2.294 1.639 4.284 4.665 5.965 2.751 1.492 8.314 4.665 8.314 4.665 3.026 2.142 4.534 4.426 4.534 8.188"/><path d="M163.508 52.357c-3.746-.094-6.647.28-9.08 1.31-.702.281-1.824.281-1.92 1.17.377.374.422.982.752 1.499.56.936 1.541 2.197 2.432 2.855.983.749 1.966 1.495 2.997 2.15 1.824 1.128 3.884 1.78 5.66 2.904 1.033.655 2.059 1.496 3.092 2.2.513.375.838.984 1.496 1.215v-.141c-.33-.42-.422-1.029-.748-1.499-.467-.465-.936-.889-1.405-1.355-1.358-1.825-3.045-3.415-4.866-4.725-1.499-1.033-4.777-2.437-5.383-4.163l-.095-.096c1.03-.095 2.249-.47 3.231-.754 1.589-.42 3.04-.325 4.678-.745.75-.189 1.499-.424 2.251-.654v-.424c-.847-.841-1.453-1.966-2.342-2.761-2.385-2.059-5.009-4.069-7.723-5.757-1.453-.936-3.325-1.542-4.87-2.34-.559-.281-1.494-.42-1.823-.89-.843-1.03-1.313-2.385-1.92-3.604-1.356-2.571-2.669-5.425-3.837-8.144-.842-1.824-1.357-3.648-2.387-5.334-4.823-7.958-10.063-12.776-18.113-17.504-1.732-.985-3.791-1.405-5.989-1.92-1.172-.049-2.341-.14-3.511-.186-.75-.329-1.5-1.219-2.154-1.64-2.669-1.684-9.546-5.334-11.513-.514-1.264 3.044 1.872 6.038 2.949 7.583.795 1.075 1.826 2.294 2.385 3.509.328.796.422 1.64.751 2.481.748 2.059 1.449 4.353 2.434 6.273.513.983 1.074 2.014 1.729 2.899.378.518 1.031.749 1.172 1.594-.653.935-.704 2.339-1.078 3.51-1.684 5.289-1.03 11.841 1.358 15.725.747 1.17 2.528 3.745 4.915 2.76 2.106-.841 1.638-3.509 2.246-5.848.14-.565.046-.936.326-1.31v.095c.655 1.308 1.312 2.569 1.92 3.883 1.453 2.291 3.978 4.679 6.086 6.269 1.12.845 2.01 2.294 3.414 2.81v-.141h-.092c-.282-.42-.702-.609-1.077-.935-.842-.843-1.776-1.873-2.434-2.808-1.965-2.62-3.699-5.524-5.24-8.519-.751-1.454-1.405-3.044-2.014-4.494-.28-.559-.28-1.404-.749-1.684-.704 1.029-1.731 1.919-2.245 3.179-.89 2.015-.983 4.495-1.313 7.07-.186.049-.092 0-.186.093-1.496-.374-2.011-1.918-2.574-3.225-1.404-3.327-1.64-8.662-.421-12.5.326-.981 1.734-4.07 1.17-5.006-.283-.893-1.218-1.403-1.732-2.108-.607-.889-1.266-2.01-1.683-2.995-1.124-2.62-1.689-5.523-2.902-8.143-.562-1.219-1.547-2.483-2.34-3.604-.891-1.264-1.873-2.153-2.576-3.649-.232-.516-.56-1.359-.187-1.919.092-.375.282-.516.657-.611.605-.514 2.339.14 2.946.421 1.733.7 3.184 1.359 4.633 2.34.656.469 1.358 1.358 2.199 1.594h.985c1.497.325 3.183.091 4.588.514 2.479.795 4.725 1.965 6.739 3.229 6.129 3.885 11.184 9.409 14.599 16.007.563 1.075.799 2.059 1.313 3.18.983 2.298 2.201 4.638 3.182 6.882.982 2.2 1.92 4.445 3.326 6.273.7.981 3.509 1.496 4.773 2.011.934.42 2.387.795 3.23 1.309 1.591.982 3.179 2.107 4.679 3.185.747.561 3.088 1.73 3.229 2.668" fill="#186C80"/><path d="M160.154 104.064h1.027v-3.941h1.344v-.805h-3.767v.805h1.396v3.941zm7.815 0h.968v-4.746h-1.456l-1.185 3.235-1.29-3.235h-1.403v4.746h.916v-3.612h.052l1.351 3.612h.698l1.349-3.612v3.612z" fill="#E6892D"/></g></svg>

<?xml version="1.0" encoding="UTF-8"?>
<svg width="169px" height="115px" viewBox="0 0 169 115" version="1.1" xmlns="http://www.w3.org/2000/svg" xmlns:xlink="http://www.w3.org/1999/xlink">
    <!-- Generator: Sketch 41 (35326) - http://www.bohemiancoding.com/sketch -->
    <title>mysql-word</title>
    <desc>Created with Sketch.</desc>
    <defs></defs>
    <g id="Page-1" stroke="none" stroke-width="1" fill="none" fill-rule="evenodd">
        <g id="mysql-word">
            <path d="M115.769,11.683 C114.975,11.683 114.415,11.779 113.85,11.918 L113.85,12.012 L113.941,12.012 C114.319,12.759 114.975,13.278 115.439,13.932 C115.816,14.681 116.144,15.428 116.518,16.176 C116.564,16.131 116.609,16.082 116.609,16.082 C117.269,15.616 117.596,14.867 117.596,13.742 C117.313,13.413 117.269,13.088 117.033,12.759 C116.753,12.292 116.144,12.058 115.769,11.683" id="Fill-3" fill="#5A7F93"></path>
            <path d="M41.308,104.068 L34.824,104.068 C34.596,93.125 33.964,82.835 32.931,73.196 L32.874,73.196 L23.003,104.068 L18.066,104.068 L8.255,73.196 L8.197,73.196 C7.47,82.453 7.012,92.743 6.821,104.068 L0.91,104.068 C1.292,90.295 2.248,77.384 3.778,65.332 L11.813,65.332 L21.167,93.794 L21.225,93.794 L30.636,65.332 L38.324,65.332 C40.008,79.447 41.002,92.362 41.308,104.068" id="Fill-4" fill="#186C80"></path>
            <path d="M69.426,75.489 C66.786,89.814 63.304,100.224 58.981,106.718 C55.613,111.722 51.924,114.224 47.906,114.224 C46.835,114.224 45.515,113.901 43.947,113.26 L43.947,109.807 C44.713,109.919 45.611,109.979 46.645,109.979 C48.519,109.979 50.029,109.461 51.179,108.427 C52.555,107.167 53.243,105.751 53.243,104.182 C53.243,103.11 52.706,100.911 51.637,97.584 L44.521,75.489 L50.891,75.489 L55.997,92.014 C57.145,95.766 57.623,98.385 57.432,99.878 C60.225,92.418 62.176,84.288 63.286,75.489 L69.426,75.489" id="Fill-5" fill="#186C80"></path>
            <polyline id="Fill-6" fill="#E6892D" points="155.73 104.068 137.311 104.068 137.311 65.332 143.509 65.332 143.509 99.303 155.73 99.303 155.73 104.068"></polyline>
            <path d="M109.423,96.319 C107.854,93.794 107.068,89.742 107.068,84.155 C107.068,74.401 110.034,69.521 115.963,69.521 C119.063,69.521 121.338,70.688 122.793,73.02 C124.36,75.546 125.146,79.563 125.146,85.072 C125.146,94.904 122.18,99.822 116.251,99.822 C113.152,99.822 110.876,98.656 109.423,96.319 M132.491,105.002 L125.371,101.491 C126.005,100.971 126.607,100.41 127.152,99.761 C130.175,96.207 131.688,90.947 131.688,83.983 C131.688,71.168 126.657,64.757 116.596,64.757 C111.661,64.757 107.815,66.382 105.061,69.637 C102.037,73.195 100.527,78.435 100.527,85.36 C100.527,92.169 101.865,97.164 104.543,100.337 C106.992,103.205 110.684,104.641 115.62,104.641 C117.463,104.641 119.154,104.414 120.691,103.96 L129.963,109.356 L132.491,105.002" id="Fill-7" fill="#E6892D"></path>
            <path d="M97.826,93.331 C97.826,96.616 96.619,99.313 94.213,101.423 C91.805,103.524 88.57,104.577 84.519,104.577 C80.73,104.577 77.058,103.365 73.501,100.96 L75.165,97.633 C78.226,99.163 80.996,99.927 83.483,99.927 C85.816,99.927 87.642,99.408 88.963,98.382 C90.281,97.349 91.071,95.908 91.071,94.08 C91.071,91.78 89.467,89.814 86.524,88.165 C83.807,86.674 78.377,83.561 78.377,83.561 C75.435,81.415 73.96,79.112 73.96,75.318 C73.96,72.18 75.06,69.644 77.257,67.714 C79.459,65.781 82.3,64.814 85.779,64.814 C89.375,64.814 92.645,65.774 95.59,67.686 L94.094,71.01 C91.574,69.942 89.089,69.406 86.639,69.406 C84.651,69.406 83.119,69.883 82.051,70.843 C80.977,71.795 80.313,73.02 80.313,74.513 C80.313,76.807 81.952,78.797 84.978,80.478 C87.729,81.97 93.292,85.143 93.292,85.143 C96.318,87.285 97.826,89.569 97.826,93.331" id="Fill-8" fill="#E6892D"></path>
            <path d="M163.508,52.357 C159.762,52.263 156.861,52.637 154.428,53.667 C153.726,53.948 152.604,53.948 152.508,54.837 C152.885,55.211 152.93,55.819 153.26,56.336 C153.82,57.272 154.801,58.533 155.692,59.191 C156.675,59.94 157.658,60.686 158.689,61.341 C160.513,62.469 162.573,63.121 164.349,64.245 C165.382,64.9 166.408,65.741 167.441,66.445 C167.954,66.82 168.279,67.429 168.937,67.66 L168.937,67.519 C168.607,67.099 168.515,66.49 168.189,66.02 C167.722,65.555 167.253,65.131 166.784,64.665 C165.426,62.84 163.739,61.25 161.918,59.94 C160.419,58.907 157.141,57.503 156.535,55.777 C156.535,55.777 156.486,55.727 156.44,55.681 C157.47,55.586 158.689,55.211 159.671,54.927 C161.26,54.507 162.711,54.602 164.349,54.182 C165.099,53.993 165.848,53.758 166.6,53.528 L166.6,53.104 C165.753,52.263 165.147,51.138 164.258,50.343 C161.873,48.284 159.249,46.274 156.535,44.586 C155.082,43.65 153.21,43.044 151.665,42.246 C151.106,41.965 150.171,41.826 149.842,41.356 C148.999,40.326 148.529,38.971 147.922,37.752 C146.566,35.181 145.253,32.327 144.085,29.608 C143.243,27.784 142.728,25.96 141.698,24.274 C136.875,16.316 131.635,11.498 123.585,6.77 C121.853,5.785 119.794,5.365 117.596,4.85 C116.424,4.801 115.255,4.71 114.085,4.664 C113.335,4.335 112.585,3.445 111.931,3.024 C109.262,1.34 102.385,-2.31 100.418,2.51 C99.154,5.554 102.29,8.548 103.367,10.093 C104.162,11.168 105.193,12.387 105.752,13.602 C106.08,14.398 106.174,15.242 106.503,16.083 C107.251,18.142 107.952,20.436 108.937,22.356 C109.45,23.339 110.011,24.37 110.666,25.255 C111.044,25.773 111.697,26.004 111.838,26.849 C111.185,27.784 111.134,29.188 110.76,30.359 C109.076,35.648 109.73,42.2 112.118,46.084 C112.865,47.254 114.646,49.829 117.033,48.844 C119.139,48.003 118.671,45.335 119.279,42.996 C119.419,42.431 119.325,42.06 119.605,41.686 L119.605,41.781 C120.26,43.089 120.917,44.35 121.525,45.664 C122.978,47.955 125.503,50.343 127.611,51.933 C128.731,52.778 129.621,54.227 131.025,54.743 L131.025,54.602 L130.933,54.602 C130.651,54.182 130.231,53.993 129.856,53.667 C129.014,52.824 128.08,51.794 127.422,50.859 C125.457,48.239 123.723,45.335 122.182,42.34 C121.431,40.886 120.777,39.296 120.168,37.846 C119.888,37.287 119.888,36.442 119.419,36.162 C118.715,37.191 117.688,38.081 117.174,39.341 C116.284,41.356 116.191,43.836 115.861,46.411 C115.675,46.46 115.769,46.411 115.675,46.504 C114.179,46.13 113.664,44.586 113.101,43.279 C111.697,39.952 111.461,34.617 112.68,30.779 C113.006,29.798 114.414,26.709 113.85,25.773 C113.567,24.88 112.632,24.37 112.118,23.665 C111.511,22.776 110.852,21.655 110.435,20.67 C109.311,18.05 108.746,15.147 107.533,12.527 C106.971,11.308 105.986,10.044 105.193,8.923 C104.302,7.659 103.32,6.77 102.617,5.274 C102.385,4.758 102.057,3.915 102.43,3.355 C102.522,2.98 102.712,2.839 103.087,2.744 C103.692,2.23 105.426,2.884 106.033,3.165 C107.766,3.865 109.217,4.524 110.666,5.505 C111.322,5.974 112.024,6.863 112.865,7.099 L113.85,7.099 C115.347,7.424 117.033,7.19 118.438,7.613 C120.917,8.408 123.163,9.578 125.177,10.842 C131.306,14.727 136.361,20.251 139.776,26.849 C140.339,27.924 140.575,28.908 141.089,30.029 C142.072,32.327 143.29,34.667 144.271,36.911 C145.253,39.111 146.191,41.356 147.597,43.184 C148.297,44.165 151.106,44.68 152.37,45.195 C153.304,45.615 154.757,45.99 155.6,46.504 C157.191,47.486 158.779,48.611 160.279,49.689 C161.026,50.25 163.367,51.419 163.508,52.357" id="Fill-9" fill="#186C80"></path>
            <path d="M160.154,104.064 L161.181,104.064 L161.181,100.123 L162.525,100.123 L162.525,99.318 L158.758,99.318 L158.758,100.123 L160.154,100.123 L160.154,104.064 Z M167.969,104.064 L168.937,104.064 L168.937,99.318 L167.481,99.318 L166.296,102.553 L165.006,99.318 L163.603,99.318 L163.603,104.064 L164.519,104.064 L164.519,100.452 L164.571,100.452 L165.922,104.064 L166.62,104.064 L167.969,100.452 L167.969,104.064 L167.969,104.064 Z" id="Fill-10" fill="#E6892D"></path>
        </g>
    </g>
</svg>
